X:1
T:All Hail to Thee, Immanuel!
T:All Hail to Thee, Immanuel!
T:Charles Hutchinson Gabriel, 1910 
T:Public Domain Courtesy of the Cyber Hymnal™
T:Public Domain Courtesy of the Cyber Hymnal™
C:Charles Hutchinson Gabriel, 1910
Z:Public Domain
Z:Courtesy of the Cyber Hymnal™
%%score ( 1 2 ) ( 3 4 )
L:1/8
M:4/4
K:Bb
V:1 treble 
V:2 treble 
V:3 bass 
V:4 bass 
V:1
 [DF]2 | [DB]3 [Ec] [Fd]2 [FB]2 | [GB]3 [EG] [DF]2 [DB]2 | A4- A>G F>G | [DF]4 [B,D]2 [DF]2 | %5
 [DB]3 [Ec] [Fd]2 [FB]2 | [GB]3 [EG] [DF]2 G2 | A4 (3ABA (3G^FG | c4 [Fc]2 [Fd]2 | %9
 [Fe]3 [Fd] [Fc]2 =Bc | [Fd]3 [Ec] [DB]2 [FA]2 | [EG]2 [FA]2 [GB]2 [Gc]2 | %12
 [^Fd]2 [Fd]2 [=Fe]2 [Fe]2 | [Fd]3 [Fc] [FB]2 [Fd]2 | [Ac][GB] [FA][EG] [DF]2 B2 | B2- B4 B2 | %16
 B2- B4 [=EB]2 | f6 [Bg]2 | [Bf]6 [FB]2 | [Fd]4 [Ec]4 | [DB]6 z2 || d6- d>A | G>F F>A G>F F3/2 z/ | %23
 e6- e>A | G>F F>A G>F F3/2 z/ x4 | (3eGA (3AB=B [Ec]>[DB] [Ec]2 | (3dFG (3ABc [Fd]>[=E^c] [Fd]2 | %27
 [Fc]2 [Gc]2 [Fc]2 [=Ec]2 | c4 F2- F2 x | d6- d>A | G>F F>A G>F F3/2 z/ | e6- e>A | %32
 G>F F>A G>F F3/2 z/ x4 | [Fd]2 [EA]2 [FB]>[Fc] [Fd]>[Fe] | [FBf]6 [GBg]2 | %35
 [FBf]3 [DFB] [FBd]2 [EFc]2 | [DFB]6 |] %37
V:2
 x2 | x8 | x8 | E2 E2 E2 E2 | x8 | x8 | x6 F2 | ^F2 F2 =E2 E2 | F2 =E2 x4 | x6 F2 | x8 | x8 | x8 | %13
 x8 | x6 B2 | x2 F2 F2 x2 | x2 F2 =E2 x2 | F2 B4 x2 | x8 | x8 | x8 || (3FGA B>A G>F F3/2 x/ | %22
 B,2 B,2 B,>B, B,3/2 x/ | (3FGA B>A G>F F3/2 x/ | x12 | F2 F2 x4 | F2 D2 =E x3 | x8 | F6 E3 | %29
 (3FGA B>A G>F F3/2 x/ | x8 | (3FGA B>A G>F F3/2 x/ | x12 | x8 | x8 | x8 | x6 |] %37
V:3
 [B,,B,]2 | [B,,F,]3 [B,,F,] [B,,B,]2 [D,B,]2 | [E,B,]3 [E,B,] [B,,B,]2 [B,,F,]2 | %3
 [C,F,]2 [F,,F,]2 [C,F,]2 [F,,A,]2 | [B,,B,]4 [B,,F,]2 [B,,B,]2 | %5
 [B,,F,]3 [B,,F,] [B,,B,]2 [D,B,]2 | [E,B,]3 [E,B,] [B,,B,]2 [B,,D]2 | %7
 [C,C]2 [C,C]2 [C,C]2 [B,C]2 | [A,C]2 [G,B,]2 [F,A,]2 [F,B,]2 | [F,C]3 [F,B,] [F,A,]2 ^G,A, | %10
 [B,,B,]3 [B,,B,] [B,,B,]2 [D,B,]2 | [E,B,]2 [E,B,]2 [E,B,]2 [E,G,]2 | %12
 [D,A,]2 [D,A,]2 [C,A,]2 [F,A,]2 | [B,,B,]3 [C,A,] [D,B,]2 [B,,B,]2 | [E,B,]2 [E,B,]2 [B,,B,]2 z2 | %15
 z2 [B,D]2 [_A,D]2 z2 | z2 [_A,D]2 [G,E]2 [_G,^C]2 | [F,D]6 [^E,^C]2 | [F,D]6 [F,D]2 | %19
 [F,B,]4 [F,A,]4 | [B,,B,]6 z2 || %21
 (3[B,,B,][B,,B,][B,,B,] [B,,F,]>[B,,F,] [B,,B,]>[B,,B,] [B,,B,]3/2 z/ | D6- D3/2 z/ | %23
 (3[F,A,][F,B,][F,C] [F,C]>[F,C] [F,A,]>[F,A,] [F,A,]3/2 z/ | E6- F,2 F,>F,[F,E]3/2 z/ | %25
 [F,A,]2 (3:2:2[F,C]2 ^G, [F,A,]>G, [F,A,]2 | %26
 [B,,B,]2 (3:2:2[B,,F,]2 [B,,F,] [B,,B,]>[B,,B,] [B,,B,]2 | [A,C]2 C2 [A,C]2 [G,B,]2 | %28
 A,4 [D,B,]2 [C,A,]2 x | (3[B,,B,][B,,B,][B,,B,] [B,,F,]>[B,,F,] [B,,B,]>[B,,B,] [B,,B,]3/2 z/ | %30
 D6- D3/2 z/ | (3[F,A,][F,B,][F,C] [F,C]>[F,C] [F,A,]>[F,A,] [F,A,]3/2 z/ | E6- F,2 F,>F,E3/2 z/ | %33
 [B,,B,]2 [C,F,]2 [D,B,]>[F,A,] B,>C | [B,D]6 [E,E]2 | [F,D]3 [F,D] [F,B,]2 [F,A,]2 | [B,,F,B,]6 |] %37
V:4
 x2 | x8 | x8 | x8 | x8 | x8 | x8 | x8 | x8 | x6 F,2 | x8 | x8 | x8 | x8 | x8 | x8 | x8 | x8 | x8 | %19
 x8 | x8 || x8 | B,,2 B,,2 B,,>B,, B,,3/2 x/ | x8 | F,2 x10 | x10/3 F, x/ F,/ x8/3 | x8 | %27
 x2 B,2 x4 | F,2 E,2 x5 | x8 | B,,2 B,,2 B,,>B,, B,,3/2 x/ | x8 | F,2 F,3/2 x17/2 | x15/2 B,/ | %34
 x8 | x8 | x6 |] %37

